packages/foundations/assets/icons/functional/images/business & payment/shopping_cart_16.svg

<svg width="16" height="16" viewBox="0 0 16 16" fill="none" xmlns="http://www.w3.org/2000/svg">
<g clip-path="url(#clip0_184_143)">
<path fill-rule="evenodd" clip-rule="evenodd" d="M6.00042 14.4C6.55042 14.4 7.00042 13.95 7.00042 13.4C7.00042 12.85 6.55042 12.4 6.00042 12.4C5.42542 12.4 5.00042 12.85 5.00042 13.4C5.00042 13.95 5.42542 14.4 6.00042 14.4ZM11.4004 14.4C11.9504 14.4 12.4004 13.95 12.4004 13.4C12.4004 12.85 11.9504 12.4 11.4004 12.4C10.8504 12.4 10.4004 12.85 10.4004 13.4C10.4004 13.95 10.8504 14.4 11.4004 14.4ZM3.32542 1.59998C4.07542 1.59998 4.67542 2.12498 4.85042 2.87498L4.92542 3.19998H13.4004C13.9254 3.19998 14.3004 3.67498 14.1754 4.17498L13.3254 7.82498C13.1754 8.42498 12.7254 8.99998 11.9254 9.07498L6.07542 9.62498L6.22542 10.4H11.8004C12.2504 10.4 12.6004 10.75 12.6004 11.2C12.6004 11.575 12.2504 12 11.8004 12H6.27541C5.45041 12 4.77541 11.45 4.65041 10.725L3.30041 3.19998H2.60042C2.15042 3.19998 1.80042 2.82498 1.80042 2.39998C1.80042 1.97498 2.17542 1.59998 2.60042 1.59998H3.32542ZM12.4004 4.79998H5.20042L5.80042 8.04998L11.7504 7.47498L12.4004 4.79998Z" fill="#1A1C1F"/>
</g>
<defs>
<clipPath id="clip0_184_143">
<rect width="16" height="16" fill="white"/>
</clipPath>
</defs>
</svg>

<svg xmlns="http://www.w3.org/2000/svg" width="16" height="16" fill="none"><g clip-path="url(#a)"><path fill="#1A1C1F" fill-rule="evenodd" d="M6 14.4c.55 0 1-.45 1-1s-.45-1-1-1c-.575 0-1 .45-1 1s.425 1 1 1m5.4 0c.55 0 1-.45 1-1s-.45-1-1-1-1 .45-1 1 .45 1 1 1M3.325 1.6c.75 0 1.35.525 1.525 1.275l.075.325H13.4c.525 0 .9.475.775.975l-.85 3.65c-.15.6-.6 1.175-1.4 1.25l-5.85.55.15.775H11.8c.45 0 .8.35.8.8 0 .375-.35.8-.8.8H6.275c-.825 0-1.5-.55-1.625-1.275L3.3 3.2h-.7c-.45 0-.8-.375-.8-.8s.375-.8.8-.8zM12.4 4.8H5.2l.6 3.25 5.95-.575z" clip-rule="evenodd"/></g><defs><clipPath id="a"><path fill="#fff" d="M0 0h16v16H0z"/></clipPath></defs></svg>
